X:1
T: Caroline O'Neill's Hornpipe
C:
R:Reel
Q: 232
K:G
M:4/4
L:1/8
|:Bc|((3dcd) gd BG AB|((3cBc) ec AG FA|DG BG FG AF|GB ((3def) gd Bc|de ((3dcd) ((3BAG) AB|cB AG FG AF|GB dg fd cA|BG GF G2:|
|:Bd|gf ef gd Bd|((3efe) ce dB Gc|ed ce dc Bd|((3gba) ((3gfe) d2 ef|gf ed cB AG|FG AB cd ef|gb ge dc BA|BG GF G2:|
|:Bc|dB GB AF EC|B,C DE FG AB|cB dB cB AG|((3FEF) AB ce dc|BG AF GD EC|B,D EF GA Bc|df eg fd cA|BG GF G2:|
|:Bd|((3gfg) dg ((3efe) ce|de dc BG AB|cB cA dc Bd|((3gba) ((3gfe) d2 ef|((3gab) af ge dB|((3cde) dB cB AB|df eg fd cA|BG GF G2:|
